!!!OTL: EIN HERZ DAS SICH MIT SORGEN QUAELT
!!!ARE: Europa, Mitteleuropa, Deutschland, Thueringen; Hessen; Brandenburg
!!!ARD1: Europa%Mitteleuropa%Deutschland@Brandenburg#
!!!ARL1: 52.50/13.50#
!!!ARD2: Europa%Mitteleuropa%Deutschland@Hessen#
!!!ARL2: 50.50/9.25#
!!!ARD3: Europa%Mitteleuropa%Deutschland@Thueringen#
!!!ARL3: 50.91/11.00#
!!!SCT: B0285
!!!YEM: Copyright 1995, estate of Helmut Schaffrath.
**kern
*ICvox
*Ivox
*M6/8
*k[f#c#]
*D:
{8A
=1
4A
8d
4F#
8F#
=2
8F#
8E
8F#
4D}
{8A
=3
4A
8G
4G
8F#
=4
8F#
8E
4.r}
{8A
=5
4A
8d
4F#
8F#
=6
8F#
8E
8F#
4D}
{8A
=7
4A
8G
4G
8F#
=8
8F#
8E
4.r}
{8A
=9
4G#
8E
8A
8G
8e
=10
8d
8B
8G#
4A}
{8A
=11
4G#
8E
8A
8G
8e
=12
8d
8B
8G#
4A
8G}
=13
{8F#
8F#
8F#
8A
8G
8r
=14
8E
8E
8E
8B
8A
8r}
=15
{8d
8d
8d
4e
8e
=16
8A
8B
8c#
4d}
==
!!!AGN: Stimmungs - Lied, Freude
!!!ONB: ESAC (Essen Associative Code) Database: BOEHME
!!!AMT: compound duple
!!!AIN: vox
!!!EED: Helmut Schaffrath
!!!EEV: 1.0
*-
